svgs/sharp-regular/memo-pad.svg

<svg xmlns="http://www.w3.org/2000/svg" viewBox="0 0 448 512"><!--! Font Awesome Pro 6.6.0 by @fontawesome - https://fontawesome.com License - https://fontawesome.com/license (Commercial License) Copyright 2024 Fonticons, Inc. --><path d="M400 128l0 336L48 464l0-336 352 0zM48 0L0 0 0 48 0 464l0 48 48 0 352 0 48 0 0-48 0-416 0-48L400 0 48 0zM96 176l0 48 24 0 208 0 24 0 0-48-24 0-208 0-24 0zm0 96l0 48 24 0 208 0 24 0 0-48-24 0-208 0-24 0zm0 96l0 48 24 0 112 0 24 0 0-48-24 0-112 0-24 0z"/></svg>

<svg xmlns="http://www.w3.org/2000/svg" viewBox="0 0 448 512"><!--! Font Awesome Pro 6.4.0 by @fontawesome - https://fontawesome.com License - https://fontawesome.com/license (Commercial License) Copyright 2023 Fonticons, Inc. --><path d="M400 128V464H48V128H400zM48 0H0V48 464v48H48 400h48V464 48 0H400 48zM96 176v48h24H328h24V176H328 120 96zm0 96v48h24H328h24V272H328 120 96zm0 96v48h24H232h24V368H232 120 96z"/></svg>
